src/assets/images/icon_warning_black.svg

<svg width="35" height="36" viewBox="0 0 35 36" fill="none" xmlns="http://www.w3.org/2000/svg">
<path id="Vector" d="M17.5 0.5C7.85056 0.5 0 8.35056 0 18C0 27.6494 7.85056 35.5 17.5 35.5C27.1494 35.5 35 27.6494 35 18C35 8.35056 27.1494 0.5 17.5 0.5ZM17.5 3.125C25.7308 3.125 32.375 9.76922 32.375 18C32.375 26.2308 25.7308 32.875 17.5 32.875C9.26921 32.875 2.625 26.2308 2.625 18C2.625 9.76922 9.26921 3.125 17.5 3.125ZM17.4795 9.2312C17.1317 9.23663 16.8003 9.37989 16.558 9.62951C16.3158 9.87913 16.1825 10.2147 16.1875 10.5625V19.3125C16.185 19.4864 16.2172 19.6591 16.282 19.8205C16.3469 19.9819 16.4432 20.1288 16.5653 20.2526C16.6874 20.3765 16.8329 20.4749 16.9934 20.542C17.1539 20.6091 17.3261 20.6437 17.5 20.6437C17.6739 20.6437 17.8461 20.6091 18.0066 20.542C18.1671 20.4749 18.3126 20.3765 18.4347 20.2526C18.5568 20.1288 18.6531 19.9819 18.718 19.8205C18.7828 19.6591 18.815 19.4864 18.8125 19.3125V10.5625C18.815 10.3868 18.7822 10.2124 18.7161 10.0497C18.65 9.8869 18.5519 9.73906 18.4276 9.61491C18.3033 9.49076 18.1553 9.39282 17.9924 9.32691C17.8296 9.261 17.6552 9.22846 17.4795 9.2312ZM17.5 23.25C17.0359 23.25 16.5908 23.4344 16.2626 23.7626C15.9344 24.0908 15.75 24.5359 15.75 25C15.75 25.4641 15.9344 25.9092 16.2626 26.2374C16.5908 26.5656 17.0359 26.75 17.5 26.75C17.9641 26.75 18.4092 26.5656 18.7374 26.2374C19.0656 25.9092 19.25 25.4641 19.25 25C19.25 24.5359 19.0656 24.0908 18.7374 23.7626C18.4092 23.4344 17.9641 23.25 17.5 23.25Z" fill="#475664"/>
</svg>

<svg xmlns="http://www.w3.org/2000/svg" width="35" height="36" fill="none"><path fill="#475664" d="M17.5.5C7.85.5 0 8.35 0 18s7.85 17.5 17.5 17.5S35 27.65 35 18 27.15.5 17.5.5m0 2.625c8.23 0 14.875 6.644 14.875 14.875S25.731 32.875 17.5 32.875A14.855 14.855 0 0 1 2.625 18c0-8.23 6.644-14.875 14.875-14.875m-.02 6.106a1.313 1.313 0 0 0-1.293 1.332v8.75a1.313 1.313 0 1 0 2.625 0v-8.75A1.313 1.313 0 0 0 17.48 9.23m.02 14.019a1.75 1.75 0 1 0 0 3.5 1.75 1.75 0 0 0 0-3.5"/></svg>
